public/art/floors/path-2.svg

<svg xmlns="http://www.w3.org/2000/svg" width="32" height="32" shape-rendering="crispEdges" viewBox="0 -0.5 16 16"><path stroke="#665e51" d="M0 0h1m2 0h1m4 0h1m2 0h1M0 3h1m2 0h1m4 0h1m2 0h1M4 4h1m2 0h1m4 0h1m2 0h1M4 5h1m2 0h1m4 0h1m2 0h1M4 7h1m2 0h1m4 0h1m2 0h1M0 8h1m2 0h1m4 0h1m2 0h1M0 11h1m2 0h1m4 0h1m2 0h1m-8 1h1m2 0h1m4 0h1m2 0h1M4 13h1m2 0h1m4 0h1m2 0h1M4 15h1m2 0h1m4 0h1m2 0h1"/><path stroke="#4c3d4c" d="M1 0h2m4 0h1m1 0h2m4 0h1M0 1h1m2 0h1m4 0h1m2 0h1M0 2h1m2 0h1m4 0h1m2 0h1M1 3h2m1 0h1m2 0h1m1 0h2m1 0h1m2 0h1M0 4h1m4 0h2m1 0h1m4 0h2M4 6h1m2 0h1m4 0h1m2 0h1M3 7h1m1 0h2m4 0h1m1 0h2M1 8h2m4 0h1m1 0h2m4 0h1M0 9h1m2 0h1m4 0h1m2 0h1M0 10h1m2 0h1m4 0h1m2 0h1M1 11h2m1 0h1m2 0h1m1 0h2m1 0h1m2 0h1M0 12h1m4 0h2m1 0h1m4 0h2M4 14h1m2 0h1m4 0h1m2 0h1M3 15h1m1 0h2m4 0h1m1 0h2"/><path stroke="#9a979d" d="M4 0h1m7 0h1M5 1h1m7 0h1M1 2h2m1 0h1m1 0h1m2 0h2m1 0h1m1 0h1M5 3h2m6 0h2M4 8h1m7 0h1M5 9h1m7 0h1M1 10h2m1 0h1m1 0h1m2 0h2m1 0h1m1 0h1M5 11h2m6 0h2"/><path stroke="#acb1b9" d="M5 0h2m6 0h2M1 1h2m1 0h1m1 0h2m1 0h2m1 0h1m1 0h2M5 2h1m1 0h1m5 0h1m1 0h1M5 8h2m6 0h2M1 9h2m1 0h1m1 0h2m1 0h2m1 0h1m1 0h2M5 10h1m1 0h1m5 0h1m1 0h1"/><path stroke="#c3beb1" d="M1 4h2m6 0h2M0 5h2m1 0h1m1 0h2m1 0h2m1 0h1m1 0h2M0 6h1m1 0h1m5 0h1m1 0h1M1 12h2m6 0h2M0 13h2m1 0h1m1 0h2m1 0h2m1 0h1m1 0h2M0 14h1m1 0h1m5 0h1m1 0h1"/><path stroke="#ddd3c6" d="M3 4h1m7 0h1M2 5h1m7 0h1M1 6h1m1 0h1m1 0h2m2 0h1m1 0h1m1 0h2M1 7h2m6 0h2m-8 5h1m7 0h1M2 13h1m7 0h1M1 14h1m1 0h1m1 0h2m2 0h1m1 0h1m1 0h2M1 15h2m6 0h2"/><path stroke="#5c4f5c" d="M0 7h1m7 0h1m-9 8h1m7 0h1"/></svg>

<svg xmlns="http://www.w3.org/2000/svg" width="32" height="32" viewBox="0 -0.5 16 16" shape-rendering="crispEdges">
<path stroke="#665e51" d="M0 0h1M3 0h1M8 0h1M11 0h1M0 3h1M3 3h1M8 3h1M11 3h1M4 4h1M7 4h1M12 4h1M15 4h1M4 5h1M7 5h1M12 5h1M15 5h1M4 7h1M7 7h1M12 7h1M15 7h1M0 8h1M3 8h1M8 8h1M11 8h1M0 11h1M3 11h1M8 11h1M11 11h1M4 12h1M7 12h1M12 12h1M15 12h1M4 13h1M7 13h1M12 13h1M15 13h1M4 15h1M7 15h1M12 15h1M15 15h1" />
<path stroke="#4c3d4c" d="M1 0h2M7 0h1M9 0h2M15 0h1M0 1h1M3 1h1M8 1h1M11 1h1M0 2h1M3 2h1M8 2h1M11 2h1M1 3h2M4 3h1M7 3h1M9 3h2M12 3h1M15 3h1M0 4h1M5 4h2M8 4h1M13 4h2M4 6h1M7 6h1M12 6h1M15 6h1M3 7h1M5 7h2M11 7h1M13 7h2M1 8h2M7 8h1M9 8h2M15 8h1M0 9h1M3 9h1M8 9h1M11 9h1M0 10h1M3 10h1M8 10h1M11 10h1M1 11h2M4 11h1M7 11h1M9 11h2M12 11h1M15 11h1M0 12h1M5 12h2M8 12h1M13 12h2M4 14h1M7 14h1M12 14h1M15 14h1M3 15h1M5 15h2M11 15h1M13 15h2" />
<path stroke="#9a979d" d="M4 0h1M12 0h1M5 1h1M13 1h1M1 2h2M4 2h1M6 2h1M9 2h2M12 2h1M14 2h1M5 3h2M13 3h2M4 8h1M12 8h1M5 9h1M13 9h1M1 10h2M4 10h1M6 10h1M9 10h2M12 10h1M14 10h1M5 11h2M13 11h2" />
<path stroke="#acb1b9" d="M5 0h2M13 0h2M1 1h2M4 1h1M6 1h2M9 1h2M12 1h1M14 1h2M5 2h1M7 2h1M13 2h1M15 2h1M5 8h2M13 8h2M1 9h2M4 9h1M6 9h2M9 9h2M12 9h1M14 9h2M5 10h1M7 10h1M13 10h1M15 10h1" />
<path stroke="#c3beb1" d="M1 4h2M9 4h2M0 5h2M3 5h1M5 5h2M8 5h2M11 5h1M13 5h2M0 6h1M2 6h1M8 6h1M10 6h1M1 12h2M9 12h2M0 13h2M3 13h1M5 13h2M8 13h2M11 13h1M13 13h2M0 14h1M2 14h1M8 14h1M10 14h1" />
<path stroke="#ddd3c6" d="M3 4h1M11 4h1M2 5h1M10 5h1M1 6h1M3 6h1M5 6h2M9 6h1M11 6h1M13 6h2M1 7h2M9 7h2M3 12h1M11 12h1M2 13h1M10 13h1M1 14h1M3 14h1M5 14h2M9 14h1M11 14h1M13 14h2M1 15h2M9 15h2" />
<path stroke="#5c4f5c" d="M0 7h1M8 7h1M0 15h1M8 15h1" />
</svg>
